resources/images/icons-sprite/custodian.svg

<svg width="20" height="16" viewBox="0 0 20 16" fill="none" xmlns="http://www.w3.org/2000/svg">
<path d="M2 0C1.46957 0 0.960859 0.210714 0.585786 0.585786C0.210714 0.960859 0 1.46957 0 2V13C0 13.5304 0.210714 14.0391 0.585786 14.4142C0.960859 14.7893 1.46957 15 2 15V16H4V15H15V16H17V15C17.5304 15 18.0391 14.7893 18.4142 14.4142C18.7893 14.0391 19 13.5304 19 13V12H20V10H19V5H20V3H19V2C19 1.46957 18.7893 0.960859 18.4142 0.585786C18.0391 0.210714 17.5304 0 17 0H2ZM2 2H17V13H2V2ZM11.5 3.5C10.4391 3.5 9.42172 3.92143 8.67157 4.67157C7.92143 5.42172 7.5 6.43913 7.5 7.5C7.5 8.56087 7.92143 9.57828 8.67157 10.3284C9.42172 11.0786 10.4391 11.5 11.5 11.5C12.5609 11.5 13.5783 11.0786 14.3284 10.3284C15.0786 9.57828 15.5 8.56087 15.5 7.5C15.5 6.43913 15.0786 5.42172 14.3284 4.67157C13.5783 3.92143 12.5609 3.5 11.5 3.5ZM3 5V10H5V5H3ZM11.5 5.5C12.0304 5.5 12.5391 5.71071 12.9142 6.08579C13.2893 6.46086 13.5 6.96957 13.5 7.5C13.5 8.03043 13.2893 8.53914 12.9142 8.91421C12.5391 9.28929 12.0304 9.5 11.5 9.5C10.9696 9.5 10.4609 9.28929 10.0858 8.91421C9.71071 8.53914 9.5 8.03043 9.5 7.5C9.5 6.96957 9.71071 6.46086 10.0858 6.08579C10.4609 5.71071 10.9696 5.5 11.5 5.5Z" fill="#A2ACBD"/>
</svg>

<svg width="20" height="16" viewBox="0 0 20 16" xmlns="http://www.w3.org/2000/svg">
    <path d="M2 0a2 2 0 00-2 2v11a2 2 0 002 2v1h2v-1h11v1h2v-1a2 2 0 002-2v-1h1v-2h-1V5h1V3h-1V2a2 2 0 00-2-2H2zm0 2h15v11H2V2zm9.5 1.5a4 4 0 100 8 4 4 0 000-8zM3 5v5h2V5H3zm8.5.5a2 2 0 110 4 2 2 0 010-4z"></path>
</svg>
